X:1
T:Serres chaudes
T:Lassitude
T:3. Lassitude
T:Ernest Chausson
T:Maurice Maeterlinck
T:Serres chaudes
T:Creative Commons copyright waiver (CC0 1.0 Universal) 
T:Creative Commons copyright waiver (CC0 1.0 Universal) 
C:Ernest Chausson
Z:Maurice Maeterlinck
Z:Creative Commons copyright waiver (CC0 1.0 Universal)
L:1/8
M:3/2
K:A
V:1 treble nm="Voice" snm="Vo."
V:1
 z F2 F F3 F F4 |[M:2/2] =G2 GG B4 |[M:3/2] z A2 F F2 z =G ^G2 =GG/G/ |[M:2/2] A3 A AA-(3AAc | %4
w: Ils ne sa- vent plus|oû se po- ser|ces bai- sers, Ces lè- vres sur des|yeux a- veu- gles * et gla-|
[M:3/2] c4- c2- c z z2 cc |[M:2/2] d2 BB G2 AB |[M:3/2] c2 AA GF-F z z2 FF |[M:2/2] A2 A z/ A/ A4 | %8
w: cés; * * Dé- sor-|mais en- dor- mis en leur|son- ge su- per- be, * Ils re-|gar- dent rê- veurs|
 z GGG B3 G | =G3 G- G z z2 |[M:3/2] z F F3 F(3FFF B2 F2 | z FFF =G2 z G ^GGGG |[M:2/2] A6 A2 | %13
w: com- me des chiens dans|l'her- be, *|La fou- le des bre- bis gri- ses|à l'ho- ri- zon Brou- ter le clair de|lune é-|
 B4- B=GGG |[M:3/2] F4 z4 z4 | z4 z ^A2 A =A2 GF | ^A4 c3 G- G^E^DC |[M:2/2] G4 z =ddd | c4 cc^de | %19
w: pars * sur le ga-|zon.|Aux ca- res- ses du|ciel, va- gue * com- me leur|vie, In- dif- fé-|rent et sans u- ne|
 e2 =dc e3 ^B | z c2 c ^B2 BG | =B4- B z B2 | ^A3 A- A A2 c | G4- G2- G z | z f2 f e d2 d | %25
w: flam- me d'en- vi- e|Pour ces ro- ses de|joie * é-|clo- ses * sous leurs|pas * *|Et ce long cal- me|
[M:3/2] c8 d2 dd |[M:2/2] BB =G4- G z | z8 | z8 | z8 |] %30
w: vert qu'ils ne com-|pren- nent pas. *||||

